X: 11063
T: MELANIE'S WALTZ
C: Bob McQuillen 20 Feb 94
B: Bob's Note Book 11 #63
R: waltz
Z: 2020 John Chambers <jc:trillian.mit.edu>
M: 3/4
L: 1/8
K: Em
GF \
| "Em"E2 G3 E | "Bm"D2 GA GF | "Em"E2 G3 A | B4 GA || "Em"B2 e3  B | "Am"AG E2 EF | "Em"G2 B3 G | "B"F4 GF |
| "Em"E2 G3 E | "Bm"D2 GA GF | "Em"E2 G3 A | B4 Bd || "Em"d2 ed BG | "Am"A2 Ac BA | "Em"G2 E2 ED | "Em"E4 :|
|: EF \
| "Em"G2 Bd BA | G2 E2 DE | "Am"G2 E3 D | "Em"E4 DE || "Em"G2 GA BA | G2 E2 DE | "Am"G2 GA Bd | "B"B4 Bd |
| "Em"ed B2 dB | "Am"AG E2 EF | "Em"G2 EG BG | "Bm"AF D2 GF || "Em"E2 EG Bd | "Am"ed Bd BA | "Em"G2 E3 D | "Em"E4 :|
%%begintext align
%% For Melanie Stiles, Deanna's sister.
%% In Memoriam, and with much love.
%%endtext

%%sep 1 1 500

%%sep 1 1 500

